!!!Genre:	Freylekhs
!!!Mode:	Freygish
!!!Listening/dance:	listening
!!!One_Mode:	yes
**kern
*I"P1
*clefG2
*k[b-e-a-]
*G:frey
*M2/4
*>A
=1
16gLL
16g
16g
16gJJ
8bnL
8ddJ
=2
(8ccTL
8bnJ)
4r
=3
16gLL
16g
16g
16gJJ
8bnL
8ddJ
=4
(8ccTL
8bnJ)
4gg
=5
16bnLL
16cc
16dd
16ee-JJ
16ffLL
16ee-
16dd
16ee-JJ
=6
16ddLL
16cc
16bn
16ccJJ
16bLL
16a-
16g
16fJJ
=7
16enLL
16f
16g
16a-JJ
16bnLL
16cc
16b
16a-JJ
=8
(16a-LL
16gJ)
8gJ
4r
=:|!
(16a-LL
16gJ)
8gJ
8r
=9!|:
*>B
8gg
=10
(16ggLL
16dd)
(16dd
16bnJJ)
(16bLL
16a-)
(16a-
16gJJ)
=11
(16gLL
16a-)
(16f
16a-JJ)
8gL
8ggJ
=12
(16ggLL
16dd)
(16dd
16bnJJ)
(16bLL
16a-)
(16a-
16gJJ)
=13
16gLL
16a-
16bn
16ccJJ
4dd
=14
16ee-LL
16dd
16ee-
16ddJJ
16ee-LL
16ddJ
8ccJ
=15
16ddLL
16cc
16bn
16ccJJ
16bLL
16a-
16g
16fJJ
=16
16enLL
16f
16g
16a-JJ
16bnLL
16cc
16b
16a-JJ
=
(16a-LL
16gJ)
8gJ
8r
=17:|!
*>C
*>bM
*c:
8g
=18
4.cc
8g
=19
4.cc
8g
=20
8ccL
8g
8cc
8gJ
=21
2cc
=22
8ccL
8dd
8ee-
8ffJ
=23
8ggL
8ggJ
16ffLL
16ee-
16dd
16ccJJ
=24
8ee-L
8ddJ
16ee-LL
16dd
16cc
16bnJJ
=25
2cc
*>eM
*G:frey
=26
4.dd
8cc
=27
4.bn
8a-
=28
8bntL
8a-
8gt
8fJ
=29
8bnL
8a-
8g
8fJ
=30
4.dd
8cc
=31
4.bn
8f
=32
16enLL
16f
16g
16a-JJ
16bnLL
16cc
16b
16a-JJ
=33
(16a-LL
16gJ)
8gJ
4r
==
*-
